X: 2116
T: MONYMUSK
C:
Q: "Strathspey."
R: Strathspey.
%R: strathspey
B: James Kerr "Merry Melodies" v.2 p.14 #116
Z: 2016 John Chambers <jc:trillian.mit.edu>
N: Added tail to last note in 1st strain.
M: C
L: 1/8
K: G
ue |\
vd>vGuB>uG vd>vGuc>ue | d>GB>G (3ABA c>e |\
d>GB>G (3Bc^c e>g | e>cA>d B<G-G ::\
ud |\
vg>vduB>ug d<gB>ud |
g>dc>a B<gA>uf |\
[1 g>dB>g d<gB>d | e>cA>d B<G- G :|\
[2 g>de>g d>gc>a | B>gA>d B<G- G |]

%%sep 1 1 500
%%sep 1 1 500

